packages/core/src/svgs/tokens/branded/MDAO.svg

<svg width="24" height="24" viewBox="0 0 24 24" fill="none" xmlns="http://www.w3.org/2000/svg">
<path fill-rule="evenodd" clip-rule="evenodd" d="M12.0045 2.00193C13.9824 1.99743 15.9167 2.58224 17.5607 3.68177C19.2048 4.78128 20.484 6.34564 21.2351 8.17527C21.9943 10.0003 22.194 12.0098 21.8088 13.9485C21.4235 15.8872 20.4707 17.6677 19.0716 19.0638C18.1446 19.994 17.0433 20.7319 15.8306 21.2355C14.6178 21.739 13.3176 21.9981 12.0045 21.9981C10.6915 21.9981 9.39122 21.739 8.17854 21.2355C6.96583 20.7319 5.86444 19.994 4.93752 19.0638C3.53407 17.6692 2.57809 15.8879 2.19168 13.9474C1.80526 12.0069 2.00592 9.99535 2.76804 8.1694C3.26838 6.95564 4.00389 5.85286 4.93219 4.92454C5.86051 3.99622 6.9633 3.26072 8.17705 2.76038C9.4 2.26064 10.6993 2.00193 12.0045 2.00193ZM12.0045 3.76575C10.5935 3.77751 9.27064 4.14202 8.12414 4.76524C11.2108 5.36493 13.104 4.72409 14.4269 4.11851C13.6625 3.88333 12.8512 3.75987 12.0045 3.76575ZM5.16094 7.46387C5.66859 6.70696 6.29609 6.03776 7.01882 5.48253C11.4871 6.61136 13.8624 5.44725 15.4263 4.68293H15.4322L15.6086 4.59474C16.5605 5.06683 17.4129 5.71754 18.1191 6.51142C15.3323 5.91171 13.9388 6.33504 12.3161 6.82302C10.7345 7.29925 8.92373 7.84603 5.16094 7.46387ZM12.5924 7.72256C14.2739 7.21694 15.6968 6.78775 19.0009 7.69905C19.3302 8.2282 19.5948 8.79849 19.8006 9.38638C16.3141 7.56382 14.4974 8.5398 12.4514 9.63332C10.5112 10.674 8.35344 11.8382 3.95567 10.2859C4.10265 9.60986 4.33782 8.96311 4.64355 8.35166C8.87669 8.84553 10.8639 8.24583 12.5806 7.72845H12.5924V7.72256ZM12.9041 10.4623C14.8442 9.42164 16.5493 8.50451 20.118 10.6446C20.1944 11.0562 20.2356 11.4794 20.2356 11.9028C19.8711 11.6676 19.4713 11.4383 19.0186 11.2561C18.2622 10.9476 17.448 10.8067 16.6319 10.8433C15.8157 10.8798 15.0173 11.0928 14.2916 11.4678C12.5865 12.2732 10.7052 13.1433 8.87669 13.5843C7.10113 14.0135 5.36671 14.0429 3.87924 13.2198L3.86747 13.2315C3.76551 12.5702 3.74577 11.8988 3.80869 11.2325C8.48867 12.8318 10.811 11.5853 12.9041 10.4682V10.4623ZM18.6659 12.1321C19.2421 12.3673 19.7476 12.6906 20.171 13.014C20.0908 13.6635 19.9328 14.3012 19.7006 14.913C19.0363 14.5603 18.2367 14.2663 17.3724 14.1488C16.1535 13.9563 14.9054 14.1779 13.8271 14.7778C12.1545 15.7479 10.3024 16.368 8.38283 16.6004C7.17169 16.7062 5.95465 16.5827 4.85522 16.0713C4.55202 15.5354 4.30948 14.9675 4.13205 14.378C5.67832 14.9835 7.37747 14.9071 9.09423 14.4956C11.0226 14.0311 12.951 13.1433 14.6973 12.3202C15.3058 12.0039 15.9758 11.8232 16.6609 11.7908C17.346 11.7583 18.0301 11.8748 18.6659 12.1321ZM5.79003 17.3765C6.44076 18.1344 7.22364 18.7678 8.10062 19.2462C11.9987 17.0884 14.4738 17.7762 16.8021 18.4113L17.0666 18.4877C18.0004 17.7528 18.7662 16.8266 19.3126 15.7714C18.7364 15.454 18.0191 15.1834 17.243 15.0777C16.2272 14.9152 15.1861 15.0974 14.2857 15.595C12.4975 16.6306 10.517 17.2907 8.46514 17.5352C7.5656 17.6116 6.66018 17.5763 5.78415 17.3765H5.79003ZM9.19418 19.7341C12.1338 18.3112 14.1623 18.6759 16.0319 19.1814C14.856 19.8458 13.4861 20.228 12.0045 20.228C11.0051 20.228 10.0644 20.0516 9.19418 19.7341Z" fill="#FF5B04"/>
</svg>

<svg xmlns="http://www.w3.org/2000/svg" width="24" height="24" fill="none" viewBox="0 0 24 24">
    <path fill="#FF5B04" fill-rule="evenodd" d="M12.005 2.002a9.95 9.95 0 0 1 9.23 6.173 9.97 9.97 0 0 1-2.163 10.889 9.98 9.98 0 0 1-14.134 0 9.95 9.95 0 0 1-2.17-10.895A9.95 9.95 0 0 1 8.177 2.76a10.1 10.1 0 0 1 3.828-.758m0 1.764a8.25 8.25 0 0 0-3.88 1c3.086.599 4.979-.042 6.302-.647a8 8 0 0 0-2.422-.353M5.16 7.464a8.4 8.4 0 0 1 1.858-1.981c4.468 1.128 6.843-.036 8.407-.8h.006l.177-.088a8.3 8.3 0 0 1 2.51 1.916c-2.787-.6-4.18-.176-5.803.312-1.582.476-3.392 1.023-7.155.64m7.431.259c1.682-.506 3.105-.935 6.409-.024.33.53.594 1.1.8 1.687-3.487-1.822-5.304-.846-7.35.247-1.94 1.041-4.098 2.205-8.495.653a8.2 8.2 0 0 1 .688-1.934c4.233.494 6.22-.106 7.937-.624h.011zm.312 2.74c1.94-1.041 3.645-1.958 7.214.182.076.411.118.834.118 1.258a7 7 0 0 0-1.217-.647 5.65 5.65 0 0 0-4.727.212c-1.706.805-3.587 1.675-5.415 2.116-1.776.43-3.51.459-4.998-.364l-.012.011a8 8 0 0 1-.058-1.998c4.68 1.599 7.002.352 9.095-.765zm5.762 1.67a6.6 6.6 0 0 1 1.505.881 8.2 8.2 0 0 1-.47 1.899 7 7 0 0 0-2.329-.764 5.52 5.52 0 0 0-3.545.629A14.3 14.3 0 0 1 8.383 16.6c-1.211.106-2.428-.017-3.528-.529a8.3 8.3 0 0 1-.723-1.693c1.546.605 3.245.53 4.962.118 1.929-.465 3.857-1.353 5.603-2.176a4.74 4.74 0 0 1 3.969-.188M5.79 17.376a8.3 8.3 0 0 0 2.31 1.87c3.899-2.159 6.374-1.47 8.702-.836l.265.077a8.3 8.3 0 0 0 2.246-2.717 6 6 0 0 0-2.07-.693 4.6 4.6 0 0 0-2.957.517 15.2 15.2 0 0 1-5.82 1.94c-.9.077-1.806.041-2.682-.159zm3.404 2.357c2.94-1.423 4.968-1.058 6.838-.553a8.15 8.15 0 0 1-4.027 1.047c-1 0-1.94-.176-2.81-.494" clip-rule="evenodd"/>
</svg>
